X:95
T:Devil Among the Taylors THO3.095, The
O:England;London
M:6/8
L:1/8
Z:vmp. Peter Dunk 2011.from a transcription by Fynn Titford-Mock 2006-9
B:Thompson's Compleat Collection of 200 Favourite Country Dances Vol. III.1765-72
Q:3/8=100
K:A
AcA cAc|ece aea|faf dfd|eae cec|dfd BdB|cec AcA|BdB GBG| A2A [A3A,3]:|
|:efe efe|ded ded|cdc cdc|BcB BcB|efe efe|ded ded|cdc cdc|{c2}B3-B3|
AcA cAc|ece aea|faf dfd|eae cec|dfd BdB|cec AcA|BdB GBG| A2A [A3A,3]:|

